!!!OTL: Der Tausendk&uuml;nstler (291), S. 605
!!!id: T0481
**kern
*clefG2
*k[f#]
*G:
{8d
8d
=1
4g
8f#
8e
=2
4d
8d
8d
=3
8e
8e
8e
8e
=4
4d
8d
8d
=5
8e
8e
8e
8e
=6
4d}
{8d
8d
=7
4g
4g
=8
4a
4a
=9
4b
8cc
8a
=10
4g
4g
=11
4f#
8e
8f#
=12
4g}
4r
=13
{8d
8d
8d
8d
=14
8e
8d
4d}
=15
4r
=16
{8e
8d
=17
8d
4d
8d
=18
8d
8d
8d
8d
=19
8e
8d
4d}
=20
4r
=21
{8b
8b-
=22
8b
8b-
4b
=23
4r
8b
8b-
=24
8b
8b-
4b}
=25
4r
=26
{4b-
=27
4b
4d
=28
4f#
4d
=29
4g}
=30
{8b
8a
=31
4d
4d
=32
4f#
8e
8f#
=33
4g}
==
*-
!!!minrhy: 8
!!!meters: 2/4 ]  ZZ[7
!!!cut: Der Tausendk&uuml;nstler (291), S. 605
!!!reg: Luxemburg
!!!trd: Singendes Volk, Esch-Alzette 1937 posth.
!!!rhy1: XX  X_XX  X_XX  XXXX  X_XX  XXXX  X_
!!!rhy2: XX  X_X_  X_X_  X_XX  X_X_  X_XX  X_0_
!!!key: T0481  08  G 2/4 ]  ZZ[7
!!!mod: ACHTTONSKALA ]  AMBITUS[7b
!!!kad: -51-5-5311
!!!akz: 1-5-6-5-6-5_1231-71_-5-6_-5-5-6_33_3-71_-5-71_
!!!fot: 'a__b__c__d__e__f__g__
!!!for: 'a__b__c__d__e__bw_f__
!!!fok: '^__~a_-__\__-__Vd_Vd_
!! PHRAS[VORWIEGEND AUFTAKTIG]
!!!fkt: ???
!!!bem: M&uuml;llertal, hhh "Stöffelchen", 6.3.1916
!! THILL, Mathias
!! PR[49] 2K[0] 2G[2] 3K[1] 3G[1] 4A[5] 4Ü[0] 5A[2] 6K[0] 6G[0]
!! 7K[2] 7G[0] 8A[0] MEHR[0] SI[14] ABS[83] SR[2] SP[12]
!! ST[16] 2k[6] 2g[23] 3k[2] 3g[0] 4d[5] 4ü[0] 5d[0] 6k[0] 6g[0]
!! 7k[0] 7g[0] 8d[0] mehr[0] si[36] dm[-22] sr[29] sp[7]
!! 1F[75] 2F[16] 3F[0] 4F[0] LF[0] 2P[9] 3P[0] 4P[0] TRI[0] DF[3] AB[95]
!! TF[0] U3K[0] U3[0] U4[0] U4Ü[0] U5[0] U6K[0] U6[0] U7K[0] U7[0]
!! N1[4] N2K[0] N2[8] N3K[0] N3[23] N4[5] N4Ü[0] N5[37] N6K[0] N6[7]
!!!n7k: 0] N7[2] O1[14] O2K[0] O2[0] O3K[0] O3[0] HÖ[0
!!!RNB: symbol: &uuml;  = u umlaut (UTF-8: Ã¼)
